X: 0
T: Peter Street
C: Trad
M: 4/4
L: 1/8
K: Gmaj
|:"G"~G2 BG dGBG|d~g3 "C"efge|"G"dGBG dGBG|"D"ADBD cDBD|
"G"~G2 BG dGBG|d~g3 "C"efge|"G"dcde ~g3e|1 "D"dcBA "G"G2 G2:|2"D"dcBA "G"G2 ~G2||
|:"D"D2 ~D2 AD ~D2|ADBD cDBD|"G"~G2 BG dGBG|d~g3 "C"efge|
"G"dcde "C"~g3e|"G"dcde "C"~g3d|"G"edgd edcB|1"C"AGFE "D"D2 ~D2:|2"C"AGAB "G"G2 G2|]